X:3320
T:Congress Reel, The
R:reel
Z:id:hn-reel-94
M:C|
K:Ador
eAAG A2 (3Bcd|eaaf gedg|eA~A2 eAcA|BGGF GABd|
eAAG ABcd|eaaf gedB|cBcd (3efg ed|cABG A2 (3Bcd:|
|:eaag ~a3g|eaag egdg|(3efg dg egdg|eaaf gedg|
eaag ~a3g|eaag (3efg dB|cBcd (3efg ed|cABG A2 (3Bcd:|
"Variations:"
eA~A2 ABcd|ea~a2 gedg|eA~A2 eA~A2|BG~G2 Bcdg|
eA~A2 A2 (3Bcd|ea~a2 gedB|c2cd efed|cABG A2 (3Bcd:|
|:eaag ~a3g|eaag (3ege dg|(3ege dg (3ege dg|egfa gedg|
eaag ~a3g|eaag (3ege dB|cBcd efed|cABG A2 (3Bcd:|


